X: 45
T: Den lille Kjøbenhavner
T: Lott'is'todt
B:[[Notböcker/Melodier til gamle danske Almuedanse for Violin solo]]
O:Danmark
Z:Søren Bak Vestergaard
N: I originalen var taktarten angivet til 3/4
M: 2/4
L: 1/8
K: G
Bd G2|Bd G2|efge|e2 d2|Bd G2|Bd G2|ABcA|A2 G2:|\
|:g2 g2|f2 f2|efge|d3 z|cedc|BdcB|AcBA|G2 z2:|

